icons-rebrand/svg/portrait-landscape-regular.svg

<svg xmlns="http://www.w3.org/2000/svg" width="32" height="32" viewBox="0 0 32 32" fill="none"><path d="M19.25 11C19.25 10.5858 19.5858 10.25 20 10.25H24C26.6234 10.25 28.75 12.3766 28.75 15V23C28.75 25.6234 26.6234 27.75 24 27.75H17C16.5858 27.75 16.25 27.4142 16.25 27C16.25 26.5858 16.5858 26.25 17 26.25H24C25.7949 26.25 27.25 24.7949 27.25 23V15C27.25 13.2051 25.7949 11.75 24 11.75H20C19.5858 11.75 19.25 11.4142 19.25 11Z M3.25 9C3.25 6.37665 5.37665 4.25 8 4.25H16C18.6234 4.25 20.75 6.37665 20.75 9V23C20.75 25.6234 18.6234 27.75 16 27.75H8C5.37665 27.75 3.25 25.6234 3.25 23V9ZM8 5.75C6.20507 5.75 4.75 7.20507 4.75 9V23C4.75 24.7949 6.20507 26.25 8 26.25H16C17.7949 26.25 19.25 24.7949 19.25 23V9C19.25 7.20507 17.7949 5.75 16 5.75H8Z M9.25 9C9.25 8.58579 9.58579 8.25 10 8.25H14C14.4142 8.25 14.75 8.58579 14.75 9C14.75 9.41421 14.4142 9.75 14 9.75H10C9.58579 9.75 9.25 9.41421 9.25 9Z"/></svg>

<svg width="32" height="32" fill="none" xmlns="http://www.w3.org/2000/svg"><path fill-rule="evenodd" clip-rule="evenodd" d="M19.25 11a.75.75 0 0 1 .75-.75h4A4.75 4.75 0 0 1 28.75 15v8A4.75 4.75 0 0 1 24 27.75h-7a.75.75 0 0 1 0-1.5h7A3.25 3.25 0 0 0 27.25 23v-8A3.25 3.25 0 0 0 24 11.75h-4a.75.75 0 0 1-.75-.75Z" fill="#0F0F0F"/><path fill-rule="evenodd" clip-rule="evenodd" d="M3.25 9A4.75 4.75 0 0 1 8 4.25h8A4.75 4.75 0 0 1 20.75 9v14A4.75 4.75 0 0 1 16 27.75H8A4.75 4.75 0 0 1 3.25 23V9ZM8 5.75A3.25 3.25 0 0 0 4.75 9v14A3.25 3.25 0 0 0 8 26.25h8A3.25 3.25 0 0 0 19.25 23V9A3.25 3.25 0 0 0 16 5.75H8Z" fill="#0F0F0F"/><path fill-rule="evenodd" clip-rule="evenodd" d="M9.25 9a.75.75 0 0 1 .75-.75h4a.75.75 0 0 1 0 1.5h-4A.75.75 0 0 1 9.25 9Z" fill="#0F0F0F"/></svg>
